assetsMobile/icons/gmail.svg

<?xml version="1.0" encoding="UTF-8"?>
<svg xmlns="http://www.w3.org/2000/svg" xmlns:xlink="http://www.w3.org/1999/xlink" width="90px" height="90px" viewBox="0 0 90 90" version="1.1">
<g id="surface1">
<path style=" stroke:none;fill-rule:nonzero;fill:rgb(77.254902%,4.705882%,16.078431%);fill-opacity:1;" d="M 44.699219 0 C 19.898438 0 -0.300781 20.199219 -0.300781 45 C -0.300781 69.800781 19.898438 90 44.699219 90 C 69.5 90 89.699219 69.800781 89.699219 45 C 89.699219 20.199219 69.5 0 44.699219 0 Z M 65 25 L 44.699219 41 L 23.699219 25 Z M 67.101562 65 L 21.699219 65 L 21.699219 31.800781 L 42.601562 47.699219 C 43.101562 48.101562 44 48.300781 44.601562 48.300781 C 45.300781 48.300781 45.898438 48.101562 46.398438 47.601562 L 67 31.199219 L 67 65 Z M 67.101562 65 "/>
<path style=" stroke:none;fill-rule:nonzero;fill:rgb(98.039216%,97.254902%,96.862745%);fill-opacity:1;" d="M 23.898438 25.101562 L 44.699219 41 L 65 25 L 23.699219 25 Z M 23.898438 25.101562 "/>
<path style=" stroke:none;fill-rule:nonzero;fill:rgb(98.039216%,97.254902%,96.862745%);fill-opacity:1;" d="M 21.699219 31.800781 L 21.699219 65 L 67.101562 65 L 67.101562 31.300781 L 44.398438 48.101562 "/>
</g>
</svg>

<?xml version="1.0" encoding="utf-8"?>
<!-- Generator: Adobe Illustrator 24.0.2, SVG Export Plug-In . SVG Version: 6.00 Build 0)  -->
<svg version="1.1" id="Capa_1" xmlns="http://www.w3.org/2000/svg" xmlns:xlink="http://www.w3.org/1999/xlink" x="0px" y="0px"
	 viewBox="0 0 90 90" style="enable-background:new 0 0 90 90;" xml:space="preserve">
<style type="text/css">
	.st0{fill:#C50C29;}
	.st1{fill:#FAF8F7;}
</style>
<path class="st0" d="M44.7,0c-24.8,0-45,20.2-45,45s20.2,45,45,45s45-20.2,45-45S69.5,0,44.7,0z M65,25L44.7,41l-21-16H65z M67.1,65
	H21.7V31.8l20.9,15.9c0.5,0.4,1.4,0.6,2,0.6c0.7,0,1.3-0.2,1.8-0.7l20.6-16.4V65z"/>
<polygon class="st1" points="23.9,25.1 44.7,41 65,25 23.7,25 "/>
<polyline class="st1" points="21.7,31.8 21.7,65 67.1,65 67.1,31.3 44.4,48.1 "/>
</svg>
